svg/color/safe.svg

<svg height="32" viewBox="0 0 32 32" width="32" xmlns="http://www.w3.org/2000/svg"><g fill="none"><circle cx="16" cy="16" fill="#00688c" r="16"/><g fill="#fff" transform="translate(5 3.652938)"><path d="m21.9889362 19.0182575-.0007582-12.67277262-11.0024294-6.33941918-.0151642.00834035-10.96527691 6.33638632v12.66973983l10.97437541 6.3227384.0015165.0007583zm-4.8700023-2.0259452-1.8765773-1.0766625-4.1883688 2.4323474c-.0242628.014406-.0545913.014406-.0796124 0l-4.80555416-2.7849165-.00151643-4.8449813-4.22173017-2.42021596 8.99847226-5.27488808c.0075822-.00454927.0166807-.00454927.0242628 0l8.3570241 4.77825854-1.4785154.85450609-6.8747176-3.9555974-6.09754921 3.57876552 2.11541436 1.21541549 3.98592595-2.31861545.0022746-.00151643 4.8700023 2.78491647-.0022746 4.60993521 4.1512163 2.3769979-.0015164.0705138-9.015153 5.2635149-8.35854043-4.7721928 1.46335115-.8567808 6.88078328 3.9464989z"/><path d="m12.3050393 11.4922349c0-.0113731 0-.0227463-.0007582-.0341195 0-.0075822-.0007582-.0144061-.0007582-.0219882 0-.0037911 0-.0083404-.0007582-.0121314-.0007582-.0083404-.0007582-.0166807-.0015164-.0250211 0-.0030328 0-.0053074-.0007583-.0083403-.0007582-.0090986-.0015164-.0181971-.0022746-.0265375 0-.0022746 0-.0045492-.0007582-.0068239-.0007582-.0090985-.0022747-.0189553-.0030329-.0280539 0-.0015164 0-.003791-.0007582-.0053074-.0015164-.0098568-.0022746-.0197136-.003791-.0288121 0-.0015165 0-.0022747-.0007583-.0037911-.0015164-.0098568-.0030328-.0197135-.0045492-.0295703 0-.0007582 0-.0022747-.0007582-.0030329-.0015165-.0098567-.0037911-.0197135-.0060658-.0303285 0-.0007582 0-.0015164-.0007582-.0022746-.0022746-.0098568-.0045492-.0204718-.0068239-.0303286 0-.0007582 0-.0015164 0-.0015164-.0022746-.010615-.0045493-.0204717-.0075821-.0303285 0-.0007582 0-.0007582 0-.0015164-.0022747-.010615-.0053075-.0204718-.0083404-.0310868v-.0007582c-.0030328-.010615-.0060657-.0204717-.0090985-.0310867 0 0 0 0 0-.0007582-.0030329-.010615-.0060657-.0204718-.0098568-.0303285-.0030328-.0098568-.0068239-.0204718-.010615-.0303286-.003791-.0098567-.0075821-.0204717-.0113732-.0303285-.003791-.0098568-.0075821-.0197135-.0121314-.0295703-.003791-.0098568-.0083403-.0197135-.0128896-.0295703s-.0090985-.0197135-.0136478-.0288121c-.0045493-.0098568-.0090986-.0189553-.0136479-.0288121 0 0 0 0 0-.0007582-.0045492-.0090986-.0098567-.0189553-.014406-.0280539v-.0007582c-.0045493-.0090986-.0098568-.0181971-.0151643-.0272957 0 0 0-.0007582-.0007582-.0007582-.0053075-.0090985-.010615-.0181971-.0151642-.0265374 0 0-.0007583-.0007582-.0007583-.0007582-.0053074-.0090986-.0106149-.0174389-.0159224-.0257793 0-.0007582-.0007582-.0007582-.0007582-.0015164-.0053075-.0083404-.010615-.0166807-.0166807-.025021 0-.0007583-.0007582-.0007583-.0007582-.0015165-.0053075-.0083403-.0113732-.0166807-.0166807-.0242628-.0007582-.0007582-.0007582-.0015164-.0015165-.0015164-.0053074-.0083404-.0113731-.0159225-.0174389-.0242628-.0007582-.0007582-.0007582-.0015165-.0015164-.0022747-.0060657-.0075821-.0113732-.0159224-.0174389-.0235046-.0007582-.0007582-.0015164-.0015164-.0015164-.0022746-.0060657-.0075821-.0121314-.0151643-.0181971-.0227464-.0007582-.0007582-.0015164-.0015164-.0022747-.0022746-.0060657-.0075822-.0121314-.0144061-.0181971-.0219882-.0007582-.0007582-.0015164-.0015165-.0022746-.0022747-.0060657-.0068239-.0121314-.014406-.0189553-.0212299-.0007582-.0007582-.0015165-.0015165-.0022747-.0030329-.0060657-.0068239-.0128896-.0136478-.0189553-.0204717-.0007582-.0007582-.0015164-.0015165-.0022746-.0030329-.0060657-.0068239-.0128897-.0136478-.0189554-.0204717-.0007582-.0007583-.0015164-.0022747-.0030328-.0030329-.0068239-.0068239-.0128896-.0128896-.0197136-.0197135-.0007582-.0007582-.0022746-.0022747-.0030328-.0030329-.0068239-.0060657-.0136478-.0128896-.0197135-.0189553-.0007583-.0007582-.0022747-.0022746-.0030329-.0030329-.0068239-.0060657-.0136478-.0121314-.0204718-.0181971-.0007582-.0007582-.0022746-.0015164-.0030328-.0030328-.0068239-.0060657-.0136478-.0121314-.02123-.0181971-.0007582-.0007582-.0022746-.0015165-.0030328-.0030329-.0068239-.0060657-.0144061-.0121314-.02123-.0174389-.0007582-.0007582-.0022746-.0015164-.0030328-.0022746-.0075822-.0060657-.0144061-.0113732-.0219882-.0174389-.0007582-.0007582-.0022747-.0015165-.0030329-.0022747-.0075821-.0053075-.0151642-.0113732-.0227464-.0166807-.0007582-.0007582-.0022746-.0015164-.0030328-.0022746-.0075821-.0053075-.0151643-.0113732-.0227464-.0166807-.0007582-.0007582-.0015164-.0015164-.0030329-.0022746-.0075821-.0053075-.0159224-.010615-.0235046-.0159225-.0007582-.0007582-.0015164-.0007582-.0022746-.0015164-.0083403-.0053075-.0166807-.010615-.0242628-.0159225-.0007582-.0007582-.0015164-.0007582-.0022747-.0015164-.0083403-.0053075-.0166806-.010615-.025021-.0151643-.0007582 0-.0007582-.0007582-.0015164-.0007582-.0083404-.0053075-.0174389-.0098568-.0265375-.0151643-.0007582 0-.0007582-.0007582-.0015164-.0007582-.0090985-.0053075-.0181971-.0098567-.0272957-.0151642h-.0007582c-.1872786-.0993259-.4003365-.1554337-.6270422-.1554337-.7415323 0-1.34203702.6005047-1.34203702 1.3420371 0 .5421223.3260316 1.0311697.82645222 1.2389201l-.58003298 2.6522292h1.13959418 1.0539161l-.5845822-2.6507128c.501937-.2092668.8287268-.6990724.8287268-1.241953z"/></g></g></svg>

<?xml version="1.0" encoding="UTF-8"?>
<svg width="32px" height="32px" viewBox="0 0 32 32" version="1.1" xmlns="http://www.w3.org/2000/svg" xmlns:xlink="http://www.w3.org/1999/xlink">
    <!-- Generator: Sketch 50 (54983) - http://www.bohemiancoding.com/sketch -->
    <title>color/safe</title>
    <desc>Created with Sketch.</desc>
    <defs></defs>
    <g id="color/safe" stroke="none" stroke-width="1" fill="none" fill-rule="evenodd">
        <g id="Group" fill="#00688C" fill-rule="nonzero">
            <circle id="Oval" cx="16" cy="16" r="16"></circle>
        </g>
        <g id="SafeCoin-(SAFE)" transform="translate(5.000000, 3.652938)" fill="#FFFFFF" fill-rule="nonzero">
            <path d="M21.9889362,19.0182575 L21.988178,6.34548488 L10.9857486,0.00606570427 L10.9705844,0.0144060476 L0.00530749123,6.35079237 L0.00530749123,19.0205322 L10.9796829,25.3432706 L10.9811994,25.3440289 L21.9889362,19.0182575 Z M17.1189339,16.9923123 L15.2423566,15.9156498 L11.0539878,18.3479972 C11.029725,18.3624032 10.9993965,18.3624032 10.9743754,18.3479972 L6.16882124,15.5630807 L6.16730481,10.7180994 L1.94557464,8.29788344 L10.9440469,3.02299536 C10.9516291,3.01844609 10.9607276,3.01844609 10.9683097,3.02299536 L19.3253338,7.8012539 L17.8468184,8.65575999 L10.9721008,4.70016259 L4.87455159,8.27892811 L6.98996595,9.4943436 L10.9758919,7.17572815 L10.9781665,7.17421172 L15.8481688,9.95912819 L15.8458942,14.5690634 L19.9971105,16.9460613 L19.9955941,17.0165751 L10.9804411,22.28009 L2.62190067,17.5078972 L4.08525182,16.6511164 L10.9660351,20.5976153 L17.1189339,16.9923123 Z" id="Shape"></path>
            <path d="M12.3050393,11.4922349 C12.3050393,11.4808618 12.3050393,11.4694886 12.3042811,11.4581154 C12.3042811,11.4505332 12.3035229,11.4437093 12.3035229,11.4361272 C12.3035229,11.4323361 12.3035229,11.4277868 12.3027647,11.4239958 C12.3020065,11.4156554 12.3020065,11.4073151 12.3012483,11.3989747 C12.3012483,11.3959419 12.3012483,11.3936673 12.30049,11.3906344 C12.2997318,11.3815358 12.2989736,11.3724373 12.2982154,11.3640969 C12.2982154,11.3618223 12.2982154,11.3595477 12.2974572,11.357273 C12.296699,11.3481745 12.2951825,11.3383177 12.2944243,11.3292191 C12.2944243,11.3277027 12.2944243,11.3254281 12.2936661,11.3239117 C12.2921497,11.3140549 12.2913915,11.3041981 12.2898751,11.2950996 C12.2898751,11.2935831 12.2898751,11.2928249 12.2891168,11.2913085 C12.2876004,11.2814517 12.286084,11.271595 12.2845676,11.2617382 C12.2845676,11.26098 12.2845676,11.2594635 12.2838094,11.2587053 C12.2822929,11.2488486 12.2800183,11.2389918 12.2777436,11.2283768 C12.2777436,11.2276186 12.2777436,11.2268604 12.2769854,11.2261022 C12.2747108,11.2162454 12.2724362,11.2056304 12.2701615,11.1957736 C12.2701615,11.1950154 12.2701615,11.1942572 12.2701615,11.1942572 C12.2678869,11.1836422 12.2656122,11.1737855 12.2625794,11.1639287 C12.2625794,11.1631705 12.2625794,11.1631705 12.2625794,11.1624123 C12.2603047,11.1517973 12.2572719,11.1419405 12.254239,11.1313255 C12.254239,11.1313255 12.254239,11.1305673 12.254239,11.1305673 C12.2512062,11.1199523 12.2481733,11.1100956 12.2451405,11.0994806 C12.2451405,11.0994806 12.2451405,11.0994806 12.2451405,11.0987224 C12.2421076,11.0881074 12.2390748,11.0782506 12.2352837,11.0683939 C12.2352837,11.0683939 12.2352837,11.0683939 12.2352837,11.0683939 C12.2322509,11.0585371 12.2284598,11.0479221 12.2246687,11.0380653 C12.2246687,11.0380653 12.2246687,11.0380653 12.2246687,11.0380653 C12.2208777,11.0282086 12.2170866,11.0175936 12.2132955,11.0077368 C12.2132955,11.0077368 12.2132955,11.0077368 12.2132955,11.0077368 C12.2095045,10.99788 12.2057134,10.9880233 12.2011641,10.9781665 C12.2011641,10.9781665 12.2011641,10.9781665 12.2011641,10.9781665 C12.1973731,10.9683097 12.1928238,10.958453 12.1882745,10.9485962 C12.1882745,10.9485962 12.1882745,10.9485962 12.1882745,10.9485962 C12.1837252,10.9387394 12.179176,10.9288827 12.1746267,10.9197841 C12.1746267,10.9197841 12.1746267,10.9197841 12.1746267,10.9197841 C12.1700774,10.9099273 12.1655281,10.9008288 12.1609788,10.890972 C12.1609788,10.890972 12.1609788,10.890972 12.1609788,10.8902138 C12.1564296,10.8811152 12.1511221,10.8712585 12.1465728,10.8621599 C12.1465728,10.8621599 12.1465728,10.8614017 12.1465728,10.8614017 C12.1420235,10.8523031 12.136716,10.8432046 12.1314085,10.834106 C12.1314085,10.834106 12.1314085,10.8333478 12.1306503,10.8333478 C12.1253428,10.8242493 12.1200353,10.8151507 12.1154861,10.8068104 C12.1154861,10.8068104 12.1147278,10.8060522 12.1147278,10.8060522 C12.1094204,10.7969536 12.1041129,10.7886133 12.0988054,10.7802729 C12.0988054,10.7795147 12.0980472,10.7795147 12.0980472,10.7787565 C12.0927397,10.7704161 12.0874322,10.7620758 12.0813665,10.7537355 C12.0813665,10.7529772 12.0806083,10.7529772 12.0806083,10.752219 C12.0753008,10.7438787 12.0692351,10.7355383 12.0639276,10.7279562 C12.0631694,10.727198 12.0631694,10.7264398 12.0624111,10.7264398 C12.0571037,10.7180994 12.051038,10.7105173 12.0449722,10.702177 C12.044214,10.7014188 12.044214,10.7006605 12.0434558,10.6999023 C12.0373901,10.6923202 12.0320826,10.6839799 12.0260169,10.6763977 C12.0252587,10.6756395 12.0245005,10.6748813 12.0245005,10.6741231 C12.0184348,10.666541 12.0123691,10.6589588 12.0063034,10.6513767 C12.0055452,10.6506185 12.004787,10.6498603 12.0040287,10.6491021 C11.997963,10.6415199 11.9918973,10.634696 11.9858316,10.6271139 C11.9850734,10.6263557 11.9843152,10.6255974 11.983557,10.6248392 C11.9774913,10.6180153 11.9714256,10.6104332 11.9646017,10.6036093 C11.9638435,10.6028511 11.9630852,10.6020928 11.962327,10.6005764 C11.9562613,10.5937525 11.9494374,10.5869286 11.9433717,10.5801047 C11.9426135,10.5793465 11.9418553,10.5785882 11.9410971,10.5770718 C11.9350314,10.5702479 11.9282074,10.563424 11.9221417,10.5566001 C11.9213835,10.5558418 11.9206253,10.5543254 11.9191089,10.5535672 C11.912285,10.5467433 11.9062193,10.5406776 11.8993953,10.5338537 C11.8986371,10.5330955 11.8971207,10.531579 11.8963625,10.5308208 C11.8895386,10.5247551 11.8827147,10.5179312 11.876649,10.5118655 C11.8758907,10.5111073 11.8743743,10.5095909 11.8736161,10.5088326 C11.8667922,10.5027669 11.8599683,10.4967012 11.8531443,10.4906355 C11.8523861,10.4898773 11.8508697,10.4891191 11.8501115,10.4876027 C11.8432876,10.481537 11.8364637,10.4754713 11.8288815,10.4694056 C11.8281233,10.4686474 11.8266069,10.4678891 11.8258487,10.4663727 C11.8190248,10.460307 11.8114426,10.4542413 11.8046187,10.4489338 C11.8038605,10.4481756 11.8023441,10.4474174 11.8015859,10.4466592 C11.7940037,10.4405935 11.7871798,10.435286 11.7795977,10.4292203 C11.7788395,10.4284621 11.777323,10.4277038 11.7765648,10.4269456 C11.7689827,10.4216381 11.7614006,10.4155724 11.7538184,10.4102649 C11.7530602,10.4095067 11.7515438,10.4087485 11.7507856,10.4079903 C11.7432035,10.4026828 11.7356213,10.3966171 11.7280392,10.3913096 C11.727281,10.3905514 11.7265228,10.3897932 11.7250063,10.389035 C11.7174242,10.3837275 11.7090839,10.37842 11.7015017,10.3731125 C11.7007435,10.3723543 11.6999853,10.3723543 11.6992271,10.3715961 C11.6908868,10.3662886 11.6825464,10.3609811 11.6749643,10.3556736 C11.6742061,10.3549154 11.6734479,10.3549154 11.6726896,10.3541572 C11.6643493,10.3488497 11.656009,10.3435422 11.6476686,10.3389929 C11.6469104,10.3389929 11.6469104,10.3382347 11.6461522,10.3382347 C11.6378118,10.3329272 11.6287133,10.3283779 11.6196147,10.3230704 C11.6188565,10.3230704 11.6188565,10.3223122 11.6180983,10.3223122 C11.6089998,10.3170047 11.5999012,10.3124555 11.5908026,10.307148 C11.5908026,10.307148 11.5900444,10.307148 11.5900444,10.307148 C11.4027658,10.2078221 11.1897079,10.1517143 10.9630022,10.1517143 C10.2214699,10.1517143 9.62096518,10.752219 9.62096518,11.4937514 C9.62096518,12.0358737 9.94699678,12.5249211 10.4474174,12.7326715 L9.86738442,15.3849007 L11.0069786,15.3849007 L12.0608947,15.3849007 L11.4763125,12.7341879 C11.9782495,12.5249211 12.3050393,12.0351155 12.3050393,11.4922349 Z" id="Shape"></path>
        </g>
    </g>
</svg>
